X: 32
T:The Lilting Banshee
M:6/8
L:1/8
R:Jig
K:G
EAA EAA | BAB G2 A | Bee edB | def gfg |
EAA EAA | BAB G2 A | Bee edB | dBA A2 G :||
d |eaa age | dBA G2 A | Bee edB | def gfg |
eaa age | dBA G2 A | Bee edB | dBA A2 :||
